X: 41404
T: Twenty-One Highland
R: strathspey
M: 4/4
K: Adorian
|:[CE4]EA,B, [CE4]A,B,C|[B,D4]DG,D [B,D4]D{B,/}A,G,|[CE4]EA,B, [CE4]EA,/B,/C|1 [B,2D4]G,B, A,2 A,B,:|2 [B,2D4] G,B, A,D[A,D]d||
c2 ec acec|c2 ec (3ege (3dBG|c2 ec acec|(3ege (3dcB A2 AB|
[E2c2] ec acec|[E2c2] ec (3ege (3dBG|(3aaa ag (3efg (3fga|(3gag (3fed (3cBA (3GED||

